X:1
T:Vinea mea electa - Viadana
T:James Gibb editions
T:#
%%score [ 1 2 3 4 ]
L:1/8
Q:1/4=200
M:none
K:C
V:1 treble nm="Soprano" snm="S"
V:2 treble nm="Alto" snm="A"
V:3 treble-8 nm="Tenor" snm="T"
V:4 bass nm="Bass" snm="B"
V:1
"^Vinea mea electa""^Ludovico da Viadana\n(1560-1627)" c8 c4 c4 | c8 B4 A4 | (c8 d8) | G8 z4 c4- | %4
w: Vi- ne- a|me- a e-|le\- *|cta, e\-|
 c4 B4 A4 G4 | A16 | A16 || A6 A2 A4 B4 | c4 c4 B8 | z16 | z16 | z4 c8 c4 | d4 e4 f6 f2 | %13
w: * go te plan-|ta-|vi:|Quo- mo- do con-|ver- sa es,|||ut me|cru- ci- fi- ge-|
 e8 z4 c4 | c6 c2 B4 c4- | c4 A8 ^G4 | A16 || A16 | B8 c4 d4 | ^c8 =c8- | c8 c8- | c4 A4 d8 | %22
w: res, et|Bar- rab- bam di\-|* mit- te-|res?|Sepivi~te,~et~lapides~e-|le- gi ex|te, et~aedifi\-|* ca\-|* vi tur-|
 ^c16 || A6 A2 A4 B4 | c4 c4 B8 | z16 | z16 | z4 c8 c4 | d4 e4 f6 f2 | e8 z4[Q:1/4=198] c4 | %30
w: rim.|Quo- mo- do con-|ver- sa es,|||ut me|cru- ci- fi- ge-|res, et|
[Q:1/4=193] c6[Q:1/4=190] c2[Q:1/4=187] B4[Q:1/4=184] c4- | %31
w: Bar- rab- bam di\-|
[Q:1/4=181] c4[Q:1/4=176] A8[Q:1/4=171] ^G4 |[Q:1/4=170] A16 |] %33
w: * mit- te-|res?|
V:2
 A8 A4 A4 | G8 G4 E4 | F16 | E8 z4 G4- | G4 G4 E6 D2 | (C4 F4 E8) | ^F16 || E6 E2 E4 G4 | %8
w: Vi- ne- a|me- a e-|le-|cta, e\-|* go te plan-|ta\- * *|vi:|Quo- mo- do con-|
 G4 ^F4 G8 | z4 A8 G4 | F4 F4 E6 D2 | F4 F8 G4 | A4 A4 A6 A2 | A8 z4 A4 | G6 G2 G4 (E4- | %15
w: ver- sa es|in a-|ma- ri- tu- di-|nem, ut me|cru- ci- fi- ge-|res, et|Bar- rab- bam di\-|
 E4 D4) E6 E2 | E16 || F16 | G8 A4 A4 | A8 A8- | A8 G8- | G4 F4 G8 | A16 || E6 E2 E4 G4 | %24
w: * * mit- te-|res?|Sepivi~te,~et~lapides~e-|le- gi ex|te, et~aedifi\-|* ca\-|* vi tur-|rim.|Quo- mo- do con-|
 G4 ^F4 G8 | z4 A8 G4 | F4 F4 E6 D2 | F4 F8 G4 | A4 A4 A6 A2 | A8 z4 A4 | G6 G2 G4 (E4- | %31
w: ver- sa es|in a-|ma- ri- tu- di-|nem, ut me|cru- ci- fi- ge-|res, et|Bar- rab- bam di\-|
 E4 D4) E6 E2 | E16 |] %33
w: * * mit- te-|res?|
V:3
 e8 e4 e4 | e8 d4 c4 | (A4 c8 B4) | c8 e8- | e4 d4 c4 B4 | (A4 d8 ^c4) | d16 || c6 c2 c4 d4 | %8
w: Vi- ne- a|me- a e-|le\- * *|cta, e\-|* go te plan-|ta\- * *|vi:|Quo- mo- do con-|
 e4 c4 d8 | f8 e4 d4- | d4 c4 _B6 B2 | c4 A8 e4 | f4 e4 d6 d2 | ^c8 z4 e4 | e6 e2 d4 (c4 | %15
w: ver- sa es|in a- ma\-|* ri- tu- di-|nem, ut me|cru- ci- fi- ge-|res, et|Bar- rab- bam di\-|
 A8) B6 B2 | A16 || d16 | d8 f4 f4 | e8 f8- | f8 e8- | e4 d4 d8 | e16 || c6 c2 c4 d4 | e4 c4 d8 | %25
w: * mit- te-|res?|Sepivi~te,~et~lapides~e-|le- gi ex|te, et~aedifi\-|* ca\-|* vi tur-|rim.|Quo- mo- do con-|ver- sa es|
 f8 e4 d4- | d4 c4 _B6 B2 | c4 A8 e4 | f4 e4 d6 d2 | ^c8 z4 e4 | e6 e2 d4 (c4 | A8) B6 B2 | A16 |] %33
w: in a- ma\-|* ri- tu- di-|nem, ut me|cru- ci- fi- ge-|res, et|Bar- rab- bam di\-|* mit- te-|res?|
V:4
 A,8 A,4 A,4 | C8 G,4 A,4 | (F,6 E,2 D,8) | C,8 C8- | C4 G,4 A,4 E,4 | (F,6 G,2 A,8) | D,16 || %7
w: Vi- ne- a|me- a e-|le\- * *|cta, e\-|* go te plan-|ta\- * *|vi:|
 A,6 A,2 A,4 G,4 | C4 A,4 G,8 | D8 C4 _B,4- | B,4 A,4 G,6 G,2 | F,4 F,8 E,4 | D,4 ^C,4 D,6 D,2 | %13
w: Quo- mo- do con-|ver- sa es|in a- ma\-|* ri- tu- di-|nem, ut me|cru- ci- fi- ge-|
 A,8 z4 A,4 | C6 C2 G,4 A,4 | (F,8 E,6) E,2 | A,,16 || D,16 | G,8 F,4 D,4 | A,8 F,8- | F,8 C8- | %21
w: res, et|Bar- rab- bam di-|mit\- * te-|res?|||||
 C4 D4 _B,8 | A,16 || A,6 A,2 A,4 G,4 | C4 A,4 G,8 | D8 C4 _B,4- | B,4 A,4 G,6 G,2 | F,4 F,8 E,4 | %28
w: ||Quo- mo- do con-|ver- sa es|in a- ma\-|* ri- tu- di-|nem, ut me|
 D,4 ^C,4 D,6 D,2 | A,8 z4 A,4 | C6 C2 G,4 A,4 | (F,8 E,6) E,2 | A,,16 |] %33
w: cru- ci- fi- ge-|res, et|Bar- rab- bam di-|mit\- * te-|res?|

